X: 103102
T: ROLL HER ON THE HILL
Q:"Reel time." 1/2=120
R: Reel.
%R:reel
B: James Kerr "Merry Melodies" v.1 p.3 s.1 #2
Z: 2017 John Chambers <jc:trillian.mit.edu>
M: C
L: 1/8
K: D
|:\
A2AF A2AF | B2BA (Bc)dB |\
A2AF A2AF | BAFD E2D2 :|\
d2(df) edcB | ABcd efge |
d2(df) edcB | AFDF E2D2 |\
d2(df) edcB | ABcd efge |\
afdf edcB | AFDF E2D2 |]

%%sep 1 1 500
%%sep 1 1 500

